Emblems/logo-bot.svg

<?xml version="1.0" encoding="UTF-8"?>
<svg width="256" height="256" version="1.1"
     xmlns="http://www.w3.org/2000/svg"
     xmlns:xlink="http://www.w3.org/1999/xlink">
  <defs>
    <linearGradient id="Gradient" x1="0" x2="0" y1="0" y2="1">
      <stop offset="0%" style="stop-color:#3584E4;stop-opacity:1" />
      <stop offset="100%" style="stop-color:#8FF0A4;stop-opacity:1" />
    </linearGradient>
    <filter id="alpha-to-white">
      <feColorMatrix in="SourceGraphic" type="matrix"
                     values="0 0 0 1 0
                             0 0 0 1 0
                             0 0 0 1 0
                             0 0 0 1 0"/>
    </filter>
    <g id="child-svg">
<svg height="16px" viewBox="0 0 16 16" width="16px" xmlns="http://www.w3.org/2000/svg">
    <path d="m 1.5 0 c -0.824219 0 -1.5 0.675781 -1.5 1.5 s 0.675781 1.5 1.5 1.5 c 0.644531 0 1.199219 -0.417969 1.410156 -0.996094 l 1.78125 -0.003906 l 0.363282 0.71875 c 0.125 0.246094 0.421874 0.34375 0.671874 0.222656 c 0.117188 -0.058594 0.207032 -0.164062 0.25 -0.289062 c 0.039063 -0.125 0.03125 -0.265625 -0.027343 -0.382813 l -0.640625 -1.269531 l -2.394532 0.003906 c -0.210937 -0.582031 -0.765624 -1.003906 -1.414062 -1.003906 z m 7.5 0 v 1 h -1 v 1 h -1 v 1 h 1 v 1 h -1 v 1 h 1 v 1 h -1 v 1 h 1 v 1 h 1 v 1 h 1 v -1 h 1 v 1 h 1 v -1 h 1 v 1 h 1 v -1 h 1 v -1 h 1 v -1 h -1 v -1 h 1 v -1 h -1 v -1 h 1 v -1 h -1 v -1 h -1 v -1 h -1 v 1 h -1 v -1 h -1 v 1 h -1 v -1 z m -7.5 1 c 0.28125 0 0.5 0.21875 0.5 0.5 s -0.21875 0.5 -0.5 0.5 s -0.5 -0.21875 -0.5 -0.5 s 0.21875 -0.5 0.5 -0.5 z m -1.5 3 v 1 h 3.222656 l 1.039063 1.664062 h -0.003907 c -0.164062 0.238282 -0.257812 0.527344 -0.257812 0.835938 c 0 0.824219 0.675781 1.5 1.5 1.5 s 1.5 -0.675781 1.5 -1.5 s -0.675781 -1.5 -1.5 -1.5 c -0.148438 0 -0.292969 0.023438 -0.429688 0.0625 l -1.292968 -2.0625 z m 0 3 v 1 h 1.730469 l 2 3 h 0.957031 l 0.71875 1.480469 c -0.140625 0.148437 -0.25 0.324219 -0.320312 0.519531 h -0.816407 l -2 -3 h -2.269531 v 1 h 1.730469 l 2 3 h 1.355469 c 0.210937 0.578125 0.765624 1 1.414062 1 c 0.824219 0 1.5 -0.675781 1.5 -1.5 s -0.675781 -1.5 -1.5 -1.5 c -0.070312 0 -0.140625 0.007812 -0.210938 0.015625 l -0.492187 -1.015625 h 1.914063 l 0.796874 1.378906 c -0.3125 0.277344 -0.507812 0.675782 -0.507812 1.121094 c 0 0.824219 0.675781 1.5 1.5 1.5 s 1.5 -0.675781 1.5 -1.5 s -0.675781 -1.5 -1.5 -1.5 c -0.019531 0 -0.035156 0 -0.054688 0.003906 l -0.578124 -1.003906 h 1.84375 l 0.800781 1.375 c -0.3125 0.277344 -0.511719 0.679688 -0.511719 1.125 c 0 0.824219 0.675781 1.5 1.5 1.5 s 1.5 -0.675781 1.5 -1.5 s -0.675781 -1.5 -1.5 -1.5 c -0.015625 0 -0.035156 0 -0.050781 0.003906 l -0.582031 -1.003906 h 1.21875 c 0.210937 0.578125 0.765624 1 1.414062 1 c 0.824219 0 1.5 -0.675781 1.5 -1.5 s -0.675781 -1.5 -1.5 -1.5 c -0.648438 0 -1.203125 0.421875 -1.414062 1 h -8.816407 l -2 -3 z m 5.5 0 c 0.28125 0 0.5 0.21875 0.5 0.5 s -0.21875 0.5 -0.5 0.5 s -0.5 -0.21875 -0.5 -0.5 s 0.21875 -0.5 0.5 -0.5 z m 9 3 c 0.28125 0 0.5 0.21875 0.5 0.5 s -0.21875 0.5 -0.5 0.5 s -0.5 -0.21875 -0.5 -0.5 s 0.21875 -0.5 0.5 -0.5 z m -8 3 c 0.28125 0 0.5 0.21875 0.5 0.5 s -0.21875 0.5 -0.5 0.5 s -0.5 -0.21875 -0.5 -0.5 s 0.21875 -0.5 0.5 -0.5 z m 3 0 c 0.28125 0 0.5 0.21875 0.5 0.5 s -0.21875 0.5 -0.5 0.5 s -0.5 -0.21875 -0.5 -0.5 s 0.21875 -0.5 0.5 -0.5 z m 3 0 c 0.28125 0 0.5 0.21875 0.5 0.5 s -0.21875 0.5 -0.5 0.5 s -0.5 -0.21875 -0.5 -0.5 s 0.21875 -0.5 0.5 -0.5 z m 0 0" fill="#2e3436"/>
</svg>
</g>
  </defs>
  <rect
      width="256"
      height="256"
      fill="url(#Gradient)"
      ry="0"
      x="0"
      y="0" />
  <use xlink:href="#child-svg" filter="url(#alpha-to-white)"
       transform="matrix(8,0,0,8,64,64)" />
</svg>

<svg xmlns="http://www.w3.org/2000/svg" xmlns:xlink="http://www.w3.org/1999/xlink" width="256" height="256"><defs><linearGradient id="a" x1="0" x2="0" y1="0" y2="1"><stop offset="0%" style="stop-color:#3584e4;stop-opacity:1"/><stop offset="100%" style="stop-color:#8ff0a4;stop-opacity:1"/></linearGradient><filter id="c"><feColorMatrix in="SourceGraphic" values="0 0 0 1 0 0 0 0 1 0 0 0 0 1 0 0 0 0 1 0"/></filter><svg xmlns="http://www.w3.org/2000/svg" id="b" width="16" height="16" viewBox="0 0 16 16"><path fill="#2e3436" d="M1.5 0C.676 0 0 .676 0 1.5S.676 3 1.5 3c.645 0 1.2-.418 1.41-.996L4.691 2l.364.719a.503.503 0 0 0 .672.222.508.508 0 0 0 .25-.289.52.52 0 0 0-.028-.382L5.31 1l-2.395.004A1.514 1.514 0 0 0 1.5 0zM9 0v1H8v1H7v1h1v1H7v1h1v1H7v1h1v1h1v1h1V8h1v1h1V8h1v1h1V8h1V7h1V6h-1V5h1V4h-1V3h1V2h-1V1h-1V0h-1v1h-1V0h-1v1h-1V0zM1.5 1c.281 0 .5.219.5.5s-.219.5-.5.5-.5-.219-.5-.5.219-.5.5-.5zM0 4v1h3.223l1.039 1.664h-.004A1.47 1.47 0 0 0 4 7.5C4 8.324 4.676 9 5.5 9S7 8.324 7 7.5a1.506 1.506 0 0 0-1.93-1.438L3.777 4zm0 3v1h1.73l2 3h.958l.718 1.48a1.5 1.5 0 0 0-.32.52H4.27l-2-3H0v1h1.73l2 3h1.356c.21.578.766 1 1.414 1 .824 0 1.5-.676 1.5-1.5a1.506 1.506 0 0 0-1.71-1.484L5.796 11H7.71l.797 1.379A1.493 1.493 0 0 0 8 13.5c0 .824.676 1.5 1.5 1.5s1.5-.676 1.5-1.5-.676-1.5-1.5-1.5c-.02 0-.035 0-.055.004L8.867 11h1.844l.8 1.375c-.312.277-.511.68-.511 1.125 0 .824.676 1.5 1.5 1.5s1.5-.676 1.5-1.5-.676-1.5-1.5-1.5c-.016 0-.035 0-.05.004L11.866 11h1.219c.21.578.766 1 1.414 1 .824 0 1.5-.676 1.5-1.5S15.324 9 14.5 9c-.648 0-1.203.422-1.414 1H4.27l-2-3zm5.5 0c.281 0 .5.219.5.5s-.219.5-.5.5-.5-.219-.5-.5.219-.5.5-.5zm9 3c.281 0 .5.219.5.5s-.219.5-.5.5-.5-.219-.5-.5.219-.5.5-.5zm-8 3c.281 0 .5.219.5.5s-.219.5-.5.5-.5-.219-.5-.5.219-.5.5-.5zm3 0c.281 0 .5.219.5.5s-.219.5-.5.5-.5-.219-.5-.5.219-.5.5-.5zm3 0c.281 0 .5.219.5.5s-.219.5-.5.5-.5-.219-.5-.5.219-.5.5-.5zm0 0"/></svg></defs><rect width="256" height="256" fill="url(#a)" ry="0"/><use xlink:href="#b" filter="url(#c)" transform="matrix(8 0 0 8 64 64)"/></svg>
